src/work/blix/blixmap/static/images/icon-x.svg

<?xml version="1.0" encoding="UTF-8" standalone="no"?>
<svg width="11px" height="11px" viewBox="0 0 11 11" version="1.1" xmlns="http://www.w3.org/2000/svg" xmlns:xlink="http://www.w3.org/1999/xlink" xmlns:sketch="http://www.bohemiancoding.com/sketch/ns">
    <!-- Generator: Sketch 3.1.1 (8761) - http://www.bohemiancoding.com/sketch -->
    <title>Rectangle 373</title>
    <desc>Created with Sketch.</desc>
    <defs></defs>
    <g id="Page-1" stroke="none" stroke-width="1" fill="none" fill-rule="evenodd" sketch:type="MSPage">
        <path d="M5.4751598,4.95946588 L9.74898053,0.685645148 C9.94581137,0.488814308 10.2596,0.491608126 10.4548622,0.686870272 C10.6444138,0.876421846 10.6506728,1.1981664 10.4560873,1.39275193 L6.18226658,5.66657266 L10.4561775,9.94048355 C10.6530083,10.1373144 10.6502145,10.4511031 10.4549523,10.6463652 C10.2654008,10.8359168 9.94365622,10.8421759 9.74907069,10.6475903 L5.4751598,6.37367944 L1.26124891,10.5875903 C1.06441807,10.7844212 0.750629396,10.7816274 0.55536725,10.5863652 C0.365815676,10.3968136 0.359556597,10.0750691 0.554142125,9.88048355 L4.76805302,5.66657266 L0.554232287,1.45275193 C0.357401447,1.25592109 0.360195265,0.942132418 0.555457411,0.746870272 C0.745008985,0.557318699 1.06675354,0.55105962 1.26133907,0.745645148 L5.4751598,4.95946588 Z" id="Rectangle-373" fill="#4A5059" sketch:type="MSShapeGroup"></path>
    </g>
</svg>

<svg height="11" viewBox="0 0 11 11" width="11" xmlns="http://www.w3.org/2000/svg"><path d="m5.4751598 4.95946588 4.27382073-4.27382073c.19683084-.19683084.51061947-.19403702.70588167.00122512.1895516.18955158.1958106.51129613.0012251.70588166l-4.27382072 4.27382073 4.27391092 4.27391089c.1968308.19683085.194037.51061955-.0012252.70588165-.1895515.1895516-.51129608.1958107-.70588161.0012251l-4.27391089-4.27391086-4.21391089 4.21391086c-.19683084.1968309-.51061951.1940371-.70588166-.0012251-.18955157-.1895516-.19581065-.5112961-.00122512-.70588165l4.21391089-4.21391089-4.21382073-4.21382073c-.19683084-.19683084-.19403702-.51061951.00122512-.70588166.18955158-.18955157.51129613-.19581065.70588166-.00122512z" fill="#4a5059" fill-rule="evenodd"/></svg>
